IMB-X-Files/The-Ambassadors-Assets/660d407ca6b6a57362f5ce83_Logo-2.svg

<svg fill="none" height="59" viewBox="0 0 183 59" width="183" xmlns="http://www.w3.org/2000/svg"><path d="m22.5422 44.4194h-5.9846v-15.3396h-4.0768v-4.9943h4.0767v-3.5538c0-4.2112 1.8031-7.2315 7.7714-7.2315 1.2623 0 3.2441.2617 3.2441.2617v4.6374h-2.0815c-2.1209 0-2.949.6633-2.949 2.4972v3.389h4.9511l-.4409 4.9943h-4.5104zm13.7317-20.733c-.0872 0-.177.0033-.2657.0056-5.5493 0-8.0882 4.2919-8.0882 10.3843 0 7.6749 3.2933 10.7466 8.1315 10.7466 2.7681 0 4.5868-1.198 5.6922-3.4336v3.0322h5.6921v-20.3339h-5.6921v3.1271c-.9026-2.0119-2.7721-3.5045-5.4698-3.5283zm1.4473 4.8048c2.3307 0 3.7296 1.6716 3.7296 4.5148l.0054 2.904c0 1.9164-1.1554 4.1584-3.735 4.1584-3.9658 0-3.8598-4.403-3.8598-5.8694 0-4.9329 2.1129-5.7078 3.8598-5.7078zm12.0134 5.7644c0-2.4709-.115-10.556 10.1296-10.556 4.1124 0 5.8296 1.3445 5.8296 1.3445l-1.3802 4.4015s-1.7149-.971-3.9495-.971c-2.8622 0-4.6885 1.706-4.6885 4.7076l.0032 2.1524c0 2.8842 1.7621 4.8095 4.6911 4.8095 2.0358 0 3.9121-.9801 3.9121-.9801l1.3767 4.3095s-1.5701 1.353-5.7657 1.353c-9.7545 0-10.1582-7.2539-10.1582-10.5709zm49.3344-10.5636c5.549 0 8.128 4.2919 8.128 10.3843 0 7.6749-3.293 10.7466-8.1313 10.7466-2.7681 0-4.8144-1.1978-5.9198-3.4336v3.0322l-5.6205-.0023v-30.5007l5.9675-.5351v13.5558c.8613-2.3716 3.6917-3.2472 5.5761-3.2472zm-1.673 4.7992c-2.3307 0-3.9031 1.6716-3.9031 4.5148l-.0055 2.904c-.0035 1.9164 1.0888 4.1584 3.9086 4.1584 3.966 0 3.86-4.403 3.86-5.8694 0-4.9329-2.113-5.7078-3.86-5.7078zm-21.348-4.7824c-6.2941 0-9.617 3.5284-9.617 9.7989v1.165c0 8.1385 4.6664 10.2338 10.2296 10.2338 5.4074 0 7.8549-1.5551 7.8549-1.5551l-1.1166-4.1414s-2.8791 1.2596-6.0228 1.2596c-3.2591 0-4.6607-.8541-5.0199-4.0744h12.6364v-3.3224c0-6.8018-3.7292-9.3642-8.9448-9.3642zm.1517 4.1469c2.1787 0 3.5904 1.3737 3.5129 4.5595h-7.3455c.1274-3.3531 1.6499-4.5595 3.8326-4.5595zm42.8963-4.1748c-6.463 0-9.866 3.7451-9.866 10.4567 0 9.2085 5.866 10.6908 9.877 10.6908 5.873 0 9.78-3.2508 9.78-10.6072 0-7.6568-4.393-10.5403-9.791-10.5403zm-.081 4.827c2.842 0 3.968 2.1871 3.968 4.6766v2.1404c0 3.0159-1.575 4.7603-3.979 4.7603-2.247 0-3.827-1.6317-3.827-4.7603v-2.1404c0-3.3366 1.88-4.6766 3.838-4.6766zm21.76-4.827c-6.463 0-9.866 3.7451-9.866 10.4567 0 9.2085 5.865 10.6908 9.877 10.6908 5.872 0 9.78-3.2508 9.78-10.6072 0-7.6568-4.394-10.5403-9.791-10.5403zm-.081 4.827c2.842 0 3.968 2.1871 3.968 4.6766v2.1404c0 3.0159-1.576 4.7603-3.979 4.7603-2.248 0-3.827-1.6317-3.827-4.7603v-2.1404c0-3.3366 1.879-4.6766 3.838-4.6766zm12.127 15.9115v-30.5009l5.985-.5351v20.4436l5.937-9.7415h6.321l-6.194 10.0893 6.432 10.2446h-6.338l-6.158-9.9474v9.9474z" fill="#fff"/></svg>

<svg width="183" height="59" viewBox="0 0 183 59" fill="none" xmlns="http://www.w3.org/2000/svg">
    <path
        d="M22.5422 44.4194H16.5576V29.0798H12.4808V24.0855H16.5575V20.5317C16.5575 16.3205 18.3606 13.3002 24.3289 13.3002C25.5912 13.3002 27.573 13.5619 27.573 13.5619V18.1993H25.4915C23.3706 18.1993 22.5425 18.8626 22.5425 20.6965V24.0855H27.4936L27.0527 29.0798H22.5423L22.5422 44.4194ZM36.2739 23.6864C36.1867 23.6864 36.0969 23.6897 36.0082 23.692C30.4589 23.692 27.92 27.9839 27.92 34.0763C27.92 41.7512 31.2133 44.8229 36.0515 44.8229C38.8196 44.8229 40.6383 43.6249 41.7437 41.3893V44.4215H47.4358V24.0876H41.7437V27.2147C40.8411 25.2028 38.9716 23.7102 36.2739 23.6864ZM37.7212 28.4912C40.0519 28.4912 41.4508 30.1628 41.4508 33.006L41.4562 35.91C41.4562 37.8264 40.3008 40.0684 37.7212 40.0684C33.7554 40.0684 33.8614 35.6654 33.8614 34.199C33.8614 29.2661 35.9743 28.4912 37.7212 28.4912ZM49.7346 34.2556C49.7346 31.7847 49.6196 23.6996 59.8642 23.6996C63.9766 23.6996 65.6938 25.0441 65.6938 25.0441L64.3136 29.4456C64.3136 29.4456 62.5987 28.4746 60.3641 28.4746C57.5019 28.4746 55.6756 30.1806 55.6756 33.1822L55.6788 35.3346C55.6788 38.2188 57.4409 40.1441 60.3699 40.1441C62.4057 40.1441 64.282 39.164 64.282 39.164L65.6587 43.4735C65.6587 43.4735 64.0886 44.8265 59.893 44.8265C50.1385 44.8265 49.7348 37.5726 49.7348 34.2556H49.7346ZM99.069 23.692C104.618 23.692 107.197 27.9839 107.197 34.0763C107.197 41.7512 103.904 44.8229 99.0657 44.8229C96.2976 44.8229 94.2513 43.6251 93.1459 41.3893V44.4215L87.5254 44.4192V13.9185L93.4929 13.3834V26.9392C94.3542 24.5676 97.1846 23.692 99.069 23.692ZM97.396 28.4912C95.0653 28.4912 93.4929 30.1628 93.4929 33.006L93.4874 35.91C93.4839 37.8264 94.5762 40.0684 97.396 40.0684C101.362 40.0684 101.256 35.6654 101.256 34.199C101.256 29.2661 99.143 28.4912 97.396 28.4912ZM76.048 23.7088C69.7539 23.7088 66.431 27.2372 66.431 33.5077V34.6727C66.431 42.8112 71.0974 44.9065 76.6606 44.9065C82.068 44.9065 84.5155 43.3514 84.5155 43.3514L83.3989 39.21C83.3989 39.21 80.5198 40.4696 77.3761 40.4696C74.117 40.4696 72.7154 39.6155 72.3562 36.3952H84.9926V33.0728C84.9926 26.271 81.2634 23.7086 76.0478 23.7086L76.048 23.7088ZM76.1997 27.8557C78.3784 27.8557 79.7901 29.2294 79.7126 32.4152H72.3671C72.4945 29.0621 74.017 27.8557 76.1997 27.8557ZM119.096 23.6809C112.633 23.6809 109.23 27.426 109.23 34.1376C109.23 43.3461 115.096 44.8284 119.107 44.8284C124.98 44.8284 128.887 41.5776 128.887 34.2212C128.887 26.5644 124.494 23.6809 119.096 23.6809ZM119.015 28.5079C121.857 28.5079 122.983 30.695 122.983 33.1845V35.3249C122.983 38.3408 121.408 40.0852 119.004 40.0852C116.757 40.0852 115.177 38.4535 115.177 35.3249V33.1845C115.177 29.8479 117.057 28.5079 119.015 28.5079ZM140.775 23.6809C134.312 23.6809 130.909 27.426 130.909 34.1376C130.909 43.3461 136.774 44.8284 140.786 44.8284C146.658 44.8284 150.566 41.5776 150.566 34.2212C150.566 26.5644 146.172 23.6809 140.775 23.6809ZM140.694 28.5079C143.536 28.5079 144.662 30.695 144.662 33.1845V35.3249C144.662 38.3408 143.086 40.0852 140.683 40.0852C138.435 40.0852 136.856 38.4535 136.856 35.3249V33.1845C136.856 29.8479 138.735 28.5079 140.694 28.5079ZM152.821 44.4194V13.9185L158.806 13.3834V33.827L164.743 24.0855H171.064L164.87 34.1748L171.302 44.4194H164.964L158.806 34.472V44.4194H152.821Z"
        fill="white" />
</svg>
